X:1
T:Title
L:1/8
M:4/4
K:C
V:1 treble nm="Grand Piano"
V:1
 z4 z2 z G | ED C6 | z2 z E- E D2 C | E8 | z2 z F F2 E2 | D>C B,6 | z2 z F- F E2 D | F2 D6 | %8
 z2 z E- E D2 C | E2 C6 | z2 z F- F E2 D | D2 B,6 | z4 B,B, CD/E/ | D2 C6 | z4 z2 z G | G2 FE- E4 | %16
 z2 z G- G F2 E | G8 | z2 GA- A G2 F | F8 | z2 z A- A G2 F | A2 F6 | z2 z B- B A2 G | B2 G6 | %24
 z2 z c- c B2 A | A2 F6 | z4 FFGA | A2 G6 | z2 z G- G F2 E | D2 B,6 | z4 B,B, CD/E/ | D2 C6 |] %32

